resources/haticons/SVG/insert_invitation.svg

<!-- Generated by IcoMoon.io -->
<svg version="1.1" xmlns="http://www.w3.org/2000/svg" width="24" height="24" viewBox="0 0 24 24">
<title>insert_invitation</title>
<path d="M18.984 18.984v-10.969h-13.969v10.969h13.969zM15.984 0.984h2.016v2.016h0.984q0.797 0 1.406 0.609t0.609 1.406v13.969q0 0.797-0.609 1.406t-1.406 0.609h-13.969q-0.844 0-1.43-0.586t-0.586-1.43v-13.969q0-0.797 0.586-1.406t1.43-0.609h0.984v-2.016h2.016v2.016h7.969v-2.016zM17.016 12v5.016h-5.016v-5.016h5.016z"></path>
</svg>

<svg xmlns="http://www.w3.org/2000/svg" width="24" height="24"><path d="M18.984 18.984V8.015H5.015v10.969h13.969zm-3-18H18V3h.984q.797 0 1.406.609t.609 1.406v13.969q0 .797-.609 1.406t-1.406.609H5.015q-.844 0-1.43-.586t-.586-1.43V5.014q0-.797.586-1.406t1.43-.609h.984V.983h2.016v2.016h7.969V.983zM17.016 12v5.016H12V12h5.016z"/></svg>
